src/images/dewynters-nl.svg

<svg width="124" height="26" viewBox="0 0 124 26" fill="none" xmlns="http://www.w3.org/2000/svg">
<path d="M116.342 11.7658C115.519 11.7658 114.778 11.6013 114.038 11.1899C113.462 10.8608 113.133 10.6139 112.228 9.87342L111.241 12.9177L108.361 8.72152C109.019 8.47468 109.513 8.31013 109.842 8.06329C110.582 7.56962 111.076 6.91139 111.323 6.17089C111.487 6.99367 111.816 7.6519 112.392 8.14557C113.133 8.8038 114.449 9.37975 115.93 9.62658L116.506 9.70886C117.658 9.87342 118.07 10.2025 118.07 10.6962C118.07 11.3544 117.411 11.7658 116.342 11.7658ZM104.658 6.99367H103.671V3.86709H104.494C105.646 3.86709 106.386 4.44304 106.386 5.43038C106.468 6.41772 105.728 6.99367 104.658 6.99367ZM7.89873 10.4494C7.40506 10.8608 6.66456 11.1899 6.08861 11.1899H5.10127V4.68987H5.92405C7.56962 4.68987 8.72152 6.00633 8.72152 7.89873C8.72152 9.05063 8.47468 9.87342 7.89873 10.4494ZM121.69 6.99367C121.196 6.58228 121.114 6.5 120.703 6.33544C120.456 6.25316 120.373 6.25316 120.209 6.17089C119.88 6.00633 119.139 5.84177 117.823 5.59494H117.741C116.835 5.43038 116.424 5.10127 116.424 4.52532C116.424 4.03165 116.835 3.70253 117.658 3.70253C118.646 3.70253 119.386 3.94937 121.032 4.60759L122.348 1.1519C120.456 0.329114 119.304 0 117.905 0C114.614 0 112.228 1.48101 111.57 3.94937C111.241 1.64557 109.43 0.493671 106.386 0.493671H98.6519V11.6835H92.3165V9.79114H96.5127V6.08861H92.3165V4.1962H97.3354V0.493671H68.1266V7.81646H68.0443L63.8481 0.493671H53.5633L51.5886 4.52532L49.6139 0.493671H40.8924L39 8.39241H38.9177L37.0253 0.493671H32.6646L30.6899 8.39241H30.6076L28.7152 0.493671H13.9051V6.66456C13.4114 2.96203 10.6139 0.575949 6.74684 0.575949H0V15.3861H6.82911C10.6962 15.3861 13.4114 12.9177 13.9051 9.21519V15.3861H24.6835V11.7658H19.0063V9.87342H23.2025V6.08861H19.0063V4.1962H24.6835L27.7278 15.3038H32.8291L34.8038 6.82911H34.8861L36.7785 15.3038H41.8797L45.2532 2.79747L49.2025 8.8038V15.3038H54.3038V8.8038L58.8291 1.81013V15.3861H63.9304V8.06329H64.0127L68.2089 15.3861H73.3101V4.1962H77.9177V15.3861H82.9367V4.1962H87.2975V15.3861H103.835V9.62658H103.918L107.044 15.3861H113.051L112.392 14.481C112.557 14.5633 112.722 14.6456 112.968 14.7278C114.285 15.3861 115.519 15.7152 116.835 15.7152C120.456 15.7152 123.089 13.4114 123.089 10.2025C122.924 8.8038 122.595 7.81646 121.69 6.99367Z" fill="#484848"/>
<path d="M7.32278 20.5696V25.9177H6.5V19.3354H7.32278L11.1076 24.519V19.3354H11.9304V25.9177H11.1076L7.32278 20.5696Z" fill="#484848"/>
<path d="M17.4431 19.3354H21.7215V20.076H18.2658V22.2152H21.7215V22.9557H18.2658V25.2595H21.7215V26H17.4431V19.3354Z" fill="#484848"/>
<path d="M28.6329 20.076H26.576V19.3354H31.5949V20.076H29.538V25.9177H28.7152V20.076H28.6329Z" fill="#484848"/>
<path d="M41.2215 22.8734H37.3544V25.9177H36.5316V19.3354H37.3544V22.1329H41.2215V19.3354H42.0443V25.9177H41.2215V22.8734Z" fill="#484848"/>
<path d="M47.557 19.3354H51.8354V20.076H48.3797V22.2152H51.8354V22.9557H48.3797V25.2595H51.8354V26H47.557V19.3354Z" fill="#484848"/>
<path d="M59.2405 23.2848H57.924V25.9177H57.1013V19.3354H59.7342C60.9683 19.3354 61.7911 20.076 61.7911 21.3101C61.7911 22.462 60.9683 23.1203 60.0633 23.2025L61.8734 25.9177H60.8861L59.2405 23.2848ZM59.6519 20.076H57.924V22.6266H59.6519C60.3924 22.6266 60.9683 22.1329 60.9683 21.3924C60.9683 20.6519 60.3924 20.076 59.6519 20.076Z" fill="#484848"/>
<path d="M67.057 19.3354H67.8797V25.1772H70.924V25.9177H67.057V19.3354Z" fill="#484848"/>
<path d="M80.2215 24.4367H76.8481L76.2722 25.9177H75.3671L78 19.3354H78.9874L81.6203 25.9177H80.7152L80.2215 24.4367ZM77.0949 23.6962H79.9747L78.576 19.9937L77.0949 23.6962Z" fill="#484848"/>
<path d="M87.2975 20.5696V25.9177H86.4747V19.3354H87.2975L91.0823 24.519V19.3354H91.9051V25.9177H91.0823L87.2975 20.5696Z" fill="#484848"/>
<path d="M97.4177 19.3354H99.6392C101.696 19.3354 103.013 20.7342 103.013 22.6266C103.013 24.519 101.696 25.9177 99.6392 25.9177H97.4177V19.3354ZM99.6392 25.1772C101.203 25.1772 102.19 24.0253 102.19 22.6266C102.19 21.2279 101.285 20.076 99.6392 20.076H98.2405V25.1772H99.6392Z" fill="#484848"/>
<path d="M108.361 24.3544C108.772 24.8481 109.513 25.2595 110.418 25.2595C111.57 25.2595 111.981 24.6012 111.981 24.1076C111.981 23.2848 111.158 23.1202 110.335 22.8734C109.266 22.6266 108.114 22.2974 108.114 20.981C108.114 19.9114 109.101 19.1709 110.335 19.1709C111.323 19.1709 112.146 19.5 112.639 20.0759L112.146 20.6519C111.652 20.0759 110.994 19.8291 110.253 19.8291C109.43 19.8291 108.937 20.2405 108.937 20.8987C108.937 21.5569 109.677 21.7215 110.5 21.9683C111.57 22.2152 112.804 22.6266 112.804 23.943C112.804 24.9304 112.146 25.9177 110.335 25.9177C109.184 25.9177 108.361 25.5063 107.785 24.8481L108.361 24.3544Z" fill="#484848"/>
</svg>

<svg id="Layer_1" data-name="Layer 1" xmlns="http://www.w3.org/2000/svg" viewBox="0 0 123.09 26"><defs><style>.cls-1{fill:#484848;}</style></defs><title>dewynters-nl</title><path class="cls-1" d="M116.34,11.77a4.56,4.56,0,0,1-2.3-.58,11.68,11.68,0,0,1-1.81-1.32l-1,3-2.88-4.2a6.45,6.45,0,0,0,1.48-.66,3.66,3.66,0,0,0,1.48-1.89,3.33,3.33,0,0,0,1.07,2,7.42,7.42,0,0,0,3.54,1.48l.58.08c1.15.16,1.56.49,1.56,1C118.07,11.35,117.41,11.77,116.34,11.77ZM104.66,7h-1V3.87h.82c1.15,0,1.89.58,1.89,1.56S105.73,7,104.66,7ZM7.9,10.45a3.17,3.17,0,0,1-1.81.74h-1V4.69h.82c1.65,0,2.8,1.32,2.8,3.21A3.41,3.41,0,0,1,7.9,10.45ZM121.69,7a2.93,2.93,0,0,0-1-.66,3.41,3.41,0,0,1-.49-.16,12.09,12.09,0,0,0-2.39-.58h-.08c-.91-.16-1.32-.49-1.32-1.07s.41-.82,1.23-.82a8.57,8.57,0,0,1,3.37.91l1.32-3.46A10.44,10.44,0,0,0,117.9,0c-3.29,0-5.68,1.48-6.33,3.95-.33-2.3-2.14-3.46-5.18-3.46H98.65V11.68H92.32V9.79h4.2V6.09h-4.2V4.2h5V.49H68.13V7.82H68L63.85.49H53.56l-2,4-2-4H40.89L39,8.39h-.08L37,.49H32.66l-2,7.9h-.08L28.72.49H13.91V6.66A6.82,6.82,0,0,0,6.75.58H0V15.39H6.83a6.81,6.81,0,0,0,7.08-6.17v6.17H24.68V11.77H19V9.87h4.2V6.09H19V4.2h5.68l3,11.11h5.1l2-8.47h.08l1.89,8.47h5.1L45.25,2.8l3.95,6v6.5h5.1V8.8l4.53-7V15.39h5.1V8.06H64l4.2,7.32h5.1V4.2h4.61V15.39h5V4.2H87.3V15.39h16.54V9.63h.08L107,15.39h6l-.66-.91a4.06,4.06,0,0,0,.58.25,8.44,8.44,0,0,0,3.87,1c3.62,0,6.25-2.3,6.25-5.51A4.66,4.66,0,0,0,121.69,7Z"/><path class="cls-1" d="M7.32,20.57v5.35H6.5V19.34h.82l3.78,5.18V19.34h.82v6.58h-.82Z"/><path class="cls-1" d="M17.44,19.34h4.28v.74H18.27v2.14h3.46V23H18.27v2.3h3.46V26H17.44Z"/><path class="cls-1" d="M28.63,20.08H26.58v-.74h5v.74H29.54v5.84h-.82V20.08Z"/><path class="cls-1" d="M41.22,22.87H37.35v3h-.82V19.34h.82v2.8h3.87v-2.8H42v6.58h-.82Z"/><path class="cls-1" d="M47.56,19.34h4.28v.74H48.38v2.14h3.46V23H48.38v2.3h3.46V26H47.56Z"/><path class="cls-1" d="M59.24,23.28H57.92v2.63H57.1V19.34h2.63a1.88,1.88,0,0,1,2.06,2,1.83,1.83,0,0,1-1.73,1.89l1.81,2.72h-1Zm.41-3.21H57.92v2.55h1.73A1.23,1.23,0,0,0,61,21.39,1.3,1.3,0,0,0,59.65,20.08Z"/><path class="cls-1" d="M67.06,19.34h.82v5.84h3v.74H67.06Z"/><path class="cls-1" d="M80.22,24.44H76.85l-.58,1.48h-.91L78,19.34h1l2.63,6.58h-.91Zm-3.13-.74H80L78.58,20Z"/><path class="cls-1" d="M87.3,20.57v5.35h-.82V19.34h.82l3.78,5.18V19.34h.82v6.58h-.82Z"/><path class="cls-1" d="M97.42,19.34h2.22A3.18,3.18,0,0,1,103,22.63a3.18,3.18,0,0,1-3.37,3.29H97.42Zm2.22,5.84a2.46,2.46,0,0,0,2.55-2.55,2.42,2.42,0,0,0-2.55-2.55h-1.4v5.1Z"/><path class="cls-1" d="M108.36,24.35a2.69,2.69,0,0,0,2.06.91c1.15,0,1.56-.66,1.56-1.15,0-.82-.82-1-1.65-1.23-1.07-.25-2.22-.58-2.22-1.89a2,2,0,0,1,2.22-1.81,3,3,0,0,1,2.3.9l-.49.58a2.38,2.38,0,0,0-1.89-.82c-.82,0-1.32.41-1.32,1.07s.74.82,1.56,1.07c1.07.25,2.3.66,2.3,2,0,1-.66,2-2.47,2a3.21,3.21,0,0,1-2.55-1.07Z"/></svg>
